svg/clockface/clockfacesolid/clock_08_40.svg

<?xml version="1.0" encoding="UTF-8" standalone="no"?>
<svg
   height="1000"
   width="1000"
   version="1.1"
   id="h00m00"
   viewBox="0 0 1000 1000"
   sodipodi:docname="solid_clock_08_40.svg"
   xmlns:inkscape="http://www.inkscape.org/namespaces/inkscape"
   xmlns:sodipodi="http://sodipodi.sourceforge.net/DTD/sodipodi-0.dtd"
   xmlns="http://www.w3.org/2000/svg"
   xmlns:svg="http://www.w3.org/2000/svg">
  <defs
     id="defs10" />
  <sodipodi:namedview
     id="namedview8"
     pagecolor="#505050"
     bordercolor="#ffffff"
     borderopacity="1"
     inkscape:showpageshadow="0"
     inkscape:pageopacity="0"
     inkscape:pagecheckerboard="1"
     inkscape:deskcolor="#505050" />
  <path
     id="path14"
     style="color:#000000;fill:#000000;stroke-width:60;-inkscape-stroke:none"
     d="M 500 130 C 296.01059 130 130 296.01059 130 500 C 130 703.98941 296.01059 870 500 870 C 703.98941 870 870 703.98941 870 500 C 870 296.01059 703.98941 130 500 130 z M 499.91211 470.21875 A 30.003 30.003 0 0 1 515 525.98047 L 359.11523 615.98047 L 281.17383 660.98047 A 30 30 0 0 1 240.19141 650 A 30 30 0 0 1 236.42969 638.91602 A 30 30 0 0 1 251.17383 609.01953 L 329.11328 564.02148 A 30 30 0 0 0 329.11523 564.01953 L 485 474.01953 A 30.003 30.003 0 0 1 499.91211 470.21875 z " />
</svg>

<svg xmlns="http://www.w3.org/2000/svg" width="1000" height="1000"><path d="M500 130c-203.99 0-370 166.01-370 370s166.01 370 370 370 370-166.01 370-370-166.01-370-370-370zm-.088 340.219A30.003 30.003 0 0 1 515 525.98l-155.885 90-77.941 45A30 30 0 0 1 240.19 650a30 30 0 0 1-3.761-11.084 30 30 0 0 1 14.744-29.896l77.94-44.999a30 30 0 0 0 .001-.001l155.885-90a30.003 30.003 0 0 1 14.912-3.801z" style="-inkscape-stroke:none" stroke-width="60"/></svg>
